Newaita-dark/.DP/16/youtube-indicator-light-sync4.svg

<svg xmlns="http://www.w3.org/2000/svg" xmlns:xlink="http://www.w3.org/1999/xlink" width="16px" height="16px" viewBox="0 0 16 16" version="1.1">
<g id="surface1">
<path style=" stroke:none;fill-rule:nonzero;fill:rgb(93.333334%,93.333334%,93.333334%);fill-opacity:1;" d="M 11.726562 9.324219 C 11.621094 9.296875 11.511719 9.308594 11.410156 9.367188 C 11.386719 9.378906 11.363281 9.398438 11.34375 9.414062 C 10.863281 9.714844 10.496094 10.1875 10.335938 10.773438 C 10.179688 11.359375 10.265625 11.953125 10.527344 12.453125 C 10.539062 12.476562 10.550781 12.503906 10.5625 12.527344 C 10.679688 12.726562 10.929688 12.792969 11.128906 12.679688 C 11.328125 12.566406 11.394531 12.3125 11.28125 12.113281 C 11.265625 12.089844 11.25 12.070312 11.234375 12.050781 C 11.074219 11.734375 11.027344 11.359375 11.125 10.984375 C 11.226562 10.609375 11.453125 10.308594 11.75 10.117188 C 11.777344 10.105469 11.800781 10.09375 11.824219 10.082031 C 12.023438 9.96875 12.089844 9.714844 11.976562 9.515625 C 11.917969 9.417969 11.828125 9.351562 11.726562 9.324219 Z M 11.726562 9.324219 "/>
<path style=" stroke:none;fill-rule:nonzero;fill:rgb(93.333334%,93.333334%,93.333334%);fill-opacity:1;" d="M 13.414062 13.417969 C 13.515625 13.445312 13.628906 13.433594 13.726562 13.375 C 13.75 13.363281 13.773438 13.34375 13.792969 13.328125 C 14.273438 13.027344 14.644531 12.554688 14.800781 11.96875 C 14.957031 11.382812 14.871094 10.789062 14.609375 10.289062 C 14.601562 10.261719 14.589844 10.238281 14.574219 10.214844 C 14.460938 10.015625 14.207031 9.949219 14.007812 10.0625 C 13.8125 10.175781 13.742188 10.429688 13.859375 10.625 C 13.871094 10.652344 13.886719 10.671875 13.90625 10.691406 C 14.066406 11.007812 14.113281 11.382812 14.011719 11.757812 C 13.910156 12.132812 13.683594 12.433594 13.386719 12.625 C 13.363281 12.636719 13.335938 12.644531 13.3125 12.660156 C 13.113281 12.773438 13.046875 13.027344 13.160156 13.222656 C 13.21875 13.324219 13.308594 13.390625 13.414062 13.417969 Z M 13.414062 13.417969 "/>
<path style=" stroke:none;fill-rule:nonzero;fill:rgb(93.333334%,93.333334%,93.333334%);fill-opacity:1;" d="M 7.917969 2.910156 C 7.917969 2.910156 3.585938 2.910156 2.503906 3.195312 C 1.921875 3.351562 1.445312 3.832031 1.285156 4.425781 C 1 5.507812 1 7.753906 1 7.753906 C 1 7.753906 1 10.011719 1.285156 11.082031 C 1.445312 11.675781 1.910156 12.140625 2.503906 12.300781 C 3.597656 12.597656 7.917969 12.597656 7.917969 12.597656 C 7.917969 12.597656 8.992188 12.597656 10.203125 12.5625 C 10.023438 12.203125 9.921875 11.800781 9.921875 11.371094 C 9.921875 9.90625 11.101562 8.726562 12.570312 8.726562 C 13.472656 8.726562 14.265625 9.171875 14.742188 9.859375 C 14.839844 8.839844 14.839844 7.765625 14.839844 7.765625 C 14.839844 7.765625 14.851562 5.507812 14.554688 4.425781 C 14.394531 3.832031 13.925781 3.363281 13.332031 3.207031 C 12.25 2.910156 7.917969 2.910156 7.917969 2.910156 Z M 6.597656 5.21875 C 6.601562 5.21875 6.609375 5.21875 6.613281 5.21875 C 6.671875 5.222656 6.726562 5.238281 6.773438 5.265625 L 10.457031 7.441406 C 10.675781 7.570312 10.675781 7.886719 10.457031 8.015625 L 6.773438 10.195312 C 6.550781 10.324219 6.269531 10.164062 6.269531 9.90625 L 6.269531 5.554688 C 6.269531 5.371094 6.417969 5.222656 6.597656 5.21875 Z M 6.597656 5.21875 "/>
</g>
</svg>

<svg xmlns="http://www.w3.org/2000/svg" width="16" height="16"><g fill="#bdbdbd"><path d="M11.727 9.324a.413.413 0 0 0-.317.043c-.023.012-.047.031-.066.047-.48.3-.848.774-1.008 1.36a2.32 2.32 0 0 0 .191 1.68l.036.073a.416.416 0 0 0 .718-.414.868.868 0 0 0-.047-.062 1.508 1.508 0 0 1 .516-1.934l.074-.035a.415.415 0 0 0-.097-.758zm0 0M13.414 13.418a.403.403 0 0 0 .313-.043c.023-.012.046-.031.066-.047.48-.3.852-.773 1.008-1.36a2.32 2.32 0 0 0-.192-1.679.26.26 0 0 0-.035-.074.415.415 0 0 0-.566-.152.41.41 0 0 0-.149.562.204.204 0 0 0 .047.066c.16.317.207.692.106 1.067a1.482 1.482 0 0 1-.625.867c-.024.012-.051.02-.075.035a.411.411 0 0 0-.152.563.408.408 0 0 0 .254.195zm0 0"/><path d="M7.918 2.91s-4.332 0-5.414.285a1.76 1.76 0 0 0-1.219 1.23C1 5.509 1 7.755 1 7.755s0 2.258.285 3.328a1.73 1.73 0 0 0 1.219 1.219c1.094.297 5.414.297 5.414.297s1.074 0 2.285-.036a2.65 2.65 0 0 1-.281-1.19 2.64 2.64 0 0 1 2.648-2.645 2.63 2.63 0 0 1 2.172 1.132c.098-1.02.098-2.093.098-2.093s.012-2.258-.285-3.34a1.728 1.728 0 0 0-1.223-1.219C12.25 2.91 7.918 2.91 7.918 2.91zM6.598 5.22h.015c.059.004.114.02.16.047l3.684 2.175a.333.333 0 0 1 0 .575l-3.684 2.18a.336.336 0 0 1-.503-.29V5.555c0-.184.148-.332.328-.336zm0 0"/></g></svg>
